X: 3087
T: Bear Dance, The
R: polka
M: 2/4
K: Bminor
|:"Bm"fB Bd/e/|fB Bd/e/|ff ed|"A"e2- ed/e/|
"G"ff e/d/c|"Em"dd c/B/A|Bd "A"c/B/A|1 "Bm"B2 Bf:|2 "Bm"B2 B2||
|:"G"B/c/d B/c/d|cA A2|"Bm"B/c/d B/c/d|e2- ed/e/|
"G"ff e/d/c|"Em"dd c/B/A|Bd "A"c/B/A|1 "Bm"B2 B2:|2 "Bm"B2 Bf||

